assets/images/fundopaglivro.svg

<svg width="309" height="638" viewBox="0 0 309 638" fill="none" xmlns="http://www.w3.org/2000/svg">
<g clip-path="url(#clip0_1283_1758)">
<path d="M377.036 74.9159C377.036 74.9159 335.251 34.3899 300.902 24.6051C255.61 11.7031 221.369 24.4899 180.269 40.0066C139.17 55.5234 104.532 86.6362 51.4186 87.0851C3.28675 87.492 -31.0731 74.2851 -65.4598 50.3056" stroke="#FCB44E" stroke-width="27"/>
<path d="M110.224 39.6071C106.958 38.9061 102.878 36.8491 99.6638 37.5569C98.1604 37.888 96.7368 38.0752 95.2502 38.5291C88.9883 40.441 82.9449 42.6823 76.0912 42.7931C69.7844 42.895 63.9766 41.8534 57.7393 40.1678C51.9881 38.6136 46.6397 37.4422 40.8794 37.7364C34.8665 38.0434 29.3119 39.8286 23.1169 39.4117C21.1338 39.2782 19.1119 39.4537 17.1373 39.1815C15.1093 38.9019 13.1707 38.2618 11.1558 37.929C9.91015 37.7232 -2.00901 35.1442 -1.92509 33.9861C-1.75757 31.6739 1.73729 29.4331 3.43494 28.5447C6.78772 26.7901 10.5419 25.7091 14.2873 24.8351C22.2005 22.9886 29.5737 20.7074 38.1721 23.4334C43.9016 25.2498 49.5881 27.9927 54.9469 30.9163C59.8305 33.5807 64.3225 36.5677 69.6081 38.1672C71.6267 38.7781 74.3429 39.932 76.4172 39.8905C77.5064 39.8686 78.5055 39.9529 77.3731 38.8575C73.2938 34.9116 66.8084 32.196 61.7387 30.1174C58.0123 28.5896 54.2766 27.2622 50.4524 26.208C46.832 25.2101 43.0328 24.827 39.554 23.1841C35.5579 21.297 32.2651 18.4647 28.5526 16.0574C26.3825 14.6503 23.7606 13.4099 21.8003 11.7035C20.8077 10.8394 20.1026 11.5839 19.0397 12.0598C17.3789 12.8034 15.7452 13.5463 14.0393 14.1516" stroke="#FCB44E" stroke-width="37" stroke-linecap="round"/>
<path d="M120.384 27.4751C117.117 26.774 113.038 24.7171 109.824 25.4248C108.32 25.7559 106.897 25.9432 105.41 26.3971C99.1482 28.3089 93.1048 30.5503 86.2511 30.661C79.9444 30.7629 74.1365 29.7213 67.8992 28.0357C62.148 26.4815 56.7997 25.3101 51.0393 25.6043C45.0265 25.9113 39.4718 27.6965 33.2768 27.2796C31.2937 27.1461 29.2718 27.3217 27.2972 27.0494C25.2692 26.7698 23.3306 26.1297 21.3157 25.7969C20.0701 25.5911 8.15091 23.0121 8.23482 21.854C8.40235 19.5419 11.8972 17.301 13.5948 16.4126C16.9476 14.658 20.7018 13.577 24.4472 12.703C32.3604 10.8565 39.7336 8.57537 48.332 11.3013C54.0615 13.1177 59.748 15.8606 65.1068 18.7842C69.9904 21.4486 74.4824 24.4356 79.768 26.0352C81.7866 26.646 84.5028 27.7999 86.5771 27.7584C87.6663 27.7366 88.6655 27.8208 87.533 26.7254C83.4537 22.7795 76.9683 20.0639 71.8986 17.9853C68.1722 16.4575 64.4365 15.1301 60.6123 14.076C56.9919 13.078 53.1927 12.6949 49.7139 11.0521C45.7178 9.16491 42.425 6.33258 38.7126 3.92536C36.5424 2.51821 33.9205 1.27778 31.9602 -0.42859C30.9676 -1.29263 30.2625 -0.548195 29.1996 -0.0723005C27.5388 0.671339 25.9051 1.41417 24.1992 2.01947" stroke="#FCB44E" stroke-width="37" stroke-linecap="round"/>
<path d="M10.6462 1.34851C10.0342 2.09267 9.36415 2.77977 8.7436 3.49547C8.44738 3.8371 8.31842 4.25002 7.9848 4.56907C7.54139 4.99312 7.17926 5.45659 6.70496 5.85372C5.55883 6.81337 4.26034 7.51659 2.91988 8.2012C2.35825 8.48803 1.79772 8.93627 1.19984 9.14225C0.731997 9.30342 0.240076 9.88997 -0.244334 9.91927" stroke="#FCB44E" stroke-width="37" stroke-linecap="round"/>
<path d="M4.87524 4.83237C5.31553 16.9684 -0.390203 21.8823 -6.40525 26.9184C-10.5472 30.3862 -14.6892 33.854 -18.8312 37.3218" stroke="#FCB44E" stroke-width="37" stroke-linecap="round"/>
<path d="M101.945 41.2368C82.4594 60.2597 61.922 59.387 40.5142 58.2484C25.7727 57.4644 11.0313 56.6803 -3.7102 55.8963" stroke="#FCB44E" stroke-width="37" stroke-linecap="round"/>
<path d="M149.403 23.3143C124.974 45.2026 99.347 44.0939 72.6358 42.6737C54.2424 41.6958 35.8489 40.7178 17.4555 39.7398" stroke="#FCB44E" stroke-width="37" stroke-linecap="round"/>
<path d="M372.685 61.0146C372.685 61.0146 338.514 20.8229 309.64 7.42221C271.569 -10.2476 242.038 -4.79239 206.587 1.89632C171.135 8.58504 140.657 29.2755 95.4942 21.5573C54.5668 14.563 25.7987 -1.69548 -2.6343 -26.9494" stroke="#FCB44E"/>
<path d="M370.841 72.8347C370.841 72.8347 339.094 30.7989 310.936 15.643C273.807 -4.34099 243.762 -0.864428 207.685 3.44767C171.609 7.75977 139.623 26.264 94.7181 15.6737C54.0243 6.07655 26.1567 -11.9029 -0.789964 -38.7697" stroke="#FEDE74" stroke-width="39"/>
<path d="M-143.203 524.617C-143.203 524.617 -103.925 577.922 -70.0605 598.589C-25.4077 625.839 9.85956 624.26 52.2018 622.199C94.544 620.139 131.438 600.655 184.844 617.281C233.242 632.348 266.888 656.385 299.839 691.031" stroke="#FEDE74" stroke-width="39"/>
<path d="M-150.597 521.573C-150.597 521.573 -95.9519 577.503 -53.7113 594.889C1.98597 617.813 41.5256 607.754 88.9654 595.474C136.405 583.195 174.332 550.93 237.873 558.882C295.454 566.088 338.097 587.634 381.999 622.274" stroke="#FEDE74" stroke-width="27"/>
<path d="M165.533 587.109C169.416 588.235 174.316 591.062 178.074 590.489C179.832 590.221 181.502 590.119 183.235 589.702C190.534 587.945 197.56 585.773 205.636 586.233C213.067 586.657 219.961 588.413 227.389 590.98C234.238 593.348 240.595 595.22 247.374 595.365C254.45 595.516 260.92 593.85 268.242 594.888C270.586 595.221 272.962 595.184 275.302 595.683C277.706 596.195 280.019 597.133 282.41 597.707C283.887 598.063 298.054 602.197 298.006 603.582C297.91 606.349 293.888 608.741 291.926 609.663C288.05 611.482 283.672 612.457 279.294 613.184C270.046 614.719 261.453 616.824 251.196 612.801C244.361 610.12 237.535 606.329 231.089 602.349C225.213 598.721 219.786 594.74 213.484 592.358C211.077 591.449 207.823 589.826 205.38 589.696C204.096 589.628 202.915 589.44 204.298 590.856C209.281 595.955 217.047 599.782 223.116 602.721C227.577 604.882 232.04 606.802 236.595 608.401C240.907 609.914 245.404 610.704 249.577 612.981C254.372 615.597 258.379 619.289 262.862 622.505C265.483 624.386 268.629 626.105 271.015 628.327C272.223 629.452 273.022 628.618 274.254 628.137C276.179 627.387 278.073 626.635 280.057 626.055" stroke="#FEDE74" stroke-width="37" stroke-linecap="round"/>
<path d="M154.084 600.824C157.966 601.95 162.866 604.778 166.625 604.205C168.383 603.937 170.053 603.835 171.786 603.418C179.084 601.661 186.111 599.489 194.186 599.949C201.618 600.373 208.511 602.128 215.939 604.696C222.788 607.063 229.146 608.935 235.924 609.08C243 609.232 249.47 607.566 256.793 608.604C259.136 608.936 261.513 608.9 263.853 609.399C266.256 609.91 268.57 610.848 270.96 611.423C272.438 611.778 286.604 615.912 286.556 617.298C286.461 620.064 282.439 622.457 280.476 623.378C276.601 625.198 272.222 626.173 267.845 626.9C258.596 628.435 250.004 630.54 239.746 626.517C232.911 623.836 226.086 620.045 219.639 616.064C213.764 612.437 208.336 608.455 202.034 606.074C199.627 605.164 196.374 603.541 193.93 603.412C192.647 603.344 191.465 603.156 192.848 604.571C197.832 609.67 205.598 613.498 211.666 616.437C216.127 618.597 220.59 620.517 225.145 622.116C229.458 623.63 233.954 624.42 238.128 626.697C242.922 629.313 246.929 633.004 251.412 636.221C254.033 638.101 257.179 639.82 259.565 642.042C260.774 643.167 261.572 642.333 262.804 641.853C264.73 641.102 266.623 640.35 268.608 639.77" stroke="#FEDE74" stroke-width="37" stroke-linecap="round"/>
<path d="M284.614 641.736C285.302 640.894 286.062 640.125 286.763 639.318C287.097 638.932 287.231 638.447 287.61 638.092C288.115 637.62 288.521 637.094 289.063 636.657C290.372 635.602 291.873 634.868 293.424 634.161C294.073 633.864 294.715 633.374 295.411 633.178C295.955 633.024 296.51 632.361 297.08 632.368" stroke="#FEDE74" stroke-width="37" stroke-linecap="round"/>
<path d="M291.27 638.043C290.216 623.406 296.728 617.989 303.599 612.452C308.331 608.639 313.062 604.826 317.794 601.013" stroke="#FEDE74" stroke-width="37" stroke-linecap="round"/>
<path d="M175.233 585.889C197.363 564.681 221.615 567.501 246.904 570.716C264.318 572.93 281.732 575.144 299.146 577.358" stroke="#FEDE74" stroke-width="37" stroke-linecap="round"/>
<path d="M120.06 603.354C147.892 579.122 178.154 582.664 209.708 586.675C231.437 589.437 253.165 592.199 274.893 594.961" stroke="#FEDE74" stroke-width="37" stroke-linecap="round"/>
<path d="M-144.861 538.677C-144.861 538.677 -102.804 589.973 -68.1741 608.59C-22.5117 633.137 12.064 629.134 53.5653 624.16C95.0665 619.187 130.087 596.943 183.672 610.137C232.232 622.093 266.864 644.138 301.498 676.971" stroke="#FEDE74"/>
<path d="M-40.0744 557.664C-40.0744 557.664 -3.48695 607.184 27.8033 626.565C69.0618 652.119 101.416 651.008 140.258 649.52C179.101 648.033 212.767 630.432 261.954 646.279C306.527 660.639 337.65 683.125 368.243 715.383" stroke="#FCB44E" stroke-width="39"/>
<path d="M-46.8908 554.787C-46.8908 554.787 3.82758 606.876 42.7728 623.314C94.1249 644.988 130.315 636.1 173.733 625.242C217.152 614.385 251.638 585.011 310.038 592.96C362.961 600.164 402.317 620.44 442.961 652.8" stroke="#FCB44E" stroke-width="27"/>
<path d="M243.928 618.277C247.503 619.353 252.029 622.007 255.473 621.515C257.083 621.286 258.615 621.208 260.202 620.84C266.883 619.292 273.31 617.358 280.727 617.861C287.552 618.324 293.897 620.009 300.74 622.448C307.051 624.697 312.905 626.485 319.128 626.685C325.624 626.893 331.546 625.42 338.277 626.449C340.431 626.778 342.612 626.768 344.765 627.25C346.976 627.745 349.109 628.632 351.309 629.185C352.669 629.527 365.713 633.476 365.683 634.753C365.623 637.302 361.955 639.468 360.163 640.298C356.625 641.938 352.616 642.794 348.605 643.422C340.132 644.747 332.267 646.604 322.811 642.795C316.511 640.257 310.208 636.696 304.251 632.964C298.822 629.563 293.8 625.84 287.991 623.583C285.773 622.721 282.771 621.194 280.527 621.05C279.348 620.975 278.262 620.79 279.546 622.109C284.171 626.857 291.337 630.461 296.937 633.23C301.053 635.265 305.169 637.078 309.366 638.596C313.339 640.034 317.474 640.806 321.328 642.945C325.755 645.403 329.47 648.845 333.617 651.854C336.041 653.613 338.946 655.228 341.158 657.3C342.279 658.349 343.003 657.587 344.129 657.157C345.889 656.483 347.619 655.809 349.435 655.293" stroke="#FCB44E" stroke-width="37" stroke-linecap="round"/>
<path d="M233.557 630.809C237.131 631.885 241.658 634.539 245.102 634.047C246.712 633.817 248.244 633.74 249.831 633.372C256.512 631.824 262.939 629.89 270.356 630.393C277.181 630.855 283.526 632.541 290.369 634.98C296.68 637.229 302.533 639.017 308.757 639.216C315.252 639.425 321.174 637.952 327.906 638.98C330.06 639.31 332.241 639.3 334.394 639.782C336.605 640.277 338.738 641.164 340.938 641.717C342.297 642.059 355.342 646.008 355.312 647.285C355.252 649.834 351.584 652 349.792 652.83C346.253 654.47 342.244 655.326 338.234 655.953C329.761 657.279 321.895 659.135 312.44 655.327C306.139 652.789 299.837 649.228 293.88 645.496C288.451 642.095 283.429 638.372 277.62 636.115C275.402 635.253 272.4 633.725 270.155 633.582C268.977 633.507 267.89 633.322 269.174 634.64C273.8 639.389 280.966 642.993 286.566 645.762C290.682 647.796 294.797 649.61 298.995 651.128C302.968 652.566 307.103 653.337 310.957 655.477C315.384 657.935 319.098 661.377 323.246 664.386C325.67 666.145 328.574 667.76 330.787 669.832C331.908 670.88 332.632 670.119 333.758 669.688C335.518 669.015 337.248 668.341 339.064 667.825" stroke="#FCB44E" stroke-width="37" stroke-linecap="round"/>
<path d="M252.819 617.25C272.916 597.911 295.204 600.747 318.448 603.956C334.454 606.166 350.459 608.376 366.465 610.587" stroke="#FCB44E" stroke-width="37" stroke-linecap="round"/>
<path d="M202.354 632.814C227.654 610.741 255.466 614.301 284.468 618.305C304.439 621.062 324.41 623.819 344.381 626.576" stroke="#FCB44E" stroke-width="37" stroke-linecap="round"/>
<path d="M-41.455 570.609C-41.455 570.609 -2.33703 618.304 29.6355 635.802C71.7935 658.876 103.488 655.522 141.53 651.341C179.571 647.161 211.49 626.997 260.806 639.681C305.496 651.175 337.505 671.834 369.624 702.438" stroke="#FCB44E"/>
</g>
<defs>
<clipPath id="clip0_1283_1758">
<rect width="309" height="638" fill="white"/>
</clipPath>
</defs>
</svg>

<svg xmlns="http://www.w3.org/2000/svg" width="309" height="638" fill="none" viewBox="0 0 309 638"><g clip-path="url(#a)"><path stroke="#fcb44e" stroke-width="27" d="M377.036 74.916s-41.785-40.526-76.134-50.31c-45.292-12.903-79.533-.116-120.633 15.4s-75.737 46.63-128.85 47.08c-48.132.406-82.492-12.8-116.879-36.78"/><path stroke="#fcb44e" stroke-linecap="round" stroke-width="37" d="M110.224 39.607c-3.266-.7-7.346-2.758-10.56-2.05-1.504.331-2.927.518-4.414.972-6.262 1.912-12.305 4.153-19.159 4.264-6.307.102-12.114-.94-18.352-2.625-5.75-1.554-11.1-2.726-16.86-2.432-6.012.307-11.567 2.093-17.762 1.676-1.983-.134-4.005.042-5.98-.23-2.028-.28-3.966-.92-5.981-1.253-1.246-.206-13.165-2.785-13.081-3.943.167-2.312 3.662-4.553 5.36-5.441 3.353-1.755 7.107-2.836 10.852-3.71 7.914-1.846 15.287-4.128 23.885-1.402 5.73 1.817 11.416 4.56 16.775 7.483 4.883 2.665 9.376 5.652 14.661 7.251 2.019.611 4.735 1.765 6.81 1.724 1.088-.022 2.087.062.955-1.033-4.08-3.946-10.565-6.662-15.634-8.74-3.727-1.528-7.462-2.856-11.287-3.91-3.62-.998-7.42-1.381-10.898-3.024-3.996-1.887-7.289-4.72-11.001-7.127-2.17-1.407-4.792-2.647-6.753-4.353-.992-.865-1.697-.12-2.76.356-1.661.743-3.295 1.486-5 2.092"/><path stroke="#fcb44e" stroke-linecap="round" stroke-width="37" d="M120.384 27.475c-3.267-.701-7.346-2.758-10.56-2.05-1.504.33-2.927.518-4.414.972-6.262 1.912-12.305 4.153-19.159 4.264-6.307.102-12.115-.94-18.352-2.625-5.751-1.555-11.1-2.726-16.86-2.432-6.013.307-11.567 2.093-17.762 1.676-1.983-.134-4.005.042-5.98-.23-2.028-.28-3.966-.92-5.981-1.253-1.246-.206-13.165-2.785-13.081-3.943.167-2.312 3.662-4.553 5.36-5.441 3.353-1.755 7.107-2.836 10.852-3.71 7.913-1.846 15.287-4.128 23.885-1.402 5.73 1.817 11.416 4.56 16.775 7.483 4.883 2.665 9.375 5.652 14.661 7.251 2.019.611 4.735 1.765 6.81 1.723 1.088-.021 2.087.063.955-1.033-4.08-3.946-10.565-6.661-15.634-8.74-3.727-1.527-7.463-2.855-11.287-3.909-3.62-.998-7.42-1.381-10.898-3.024-3.996-1.887-7.289-4.72-11.001-7.127-2.17-1.407-4.793-2.647-6.753-4.354-.992-.864-1.698-.12-2.76.357-1.661.743-3.295 1.486-5 2.091m-13.554-.67c-.612.744-1.282 1.43-1.902 2.146-.297.342-.426.755-.76 1.074-.443.424-.805.888-1.279 1.285C5.559 6.814 4.26 7.517 2.92 8.2c-.562.287-1.122.735-1.72.941-.468.161-.96.748-1.444.777"/><path stroke="#fcb44e" stroke-linecap="round" stroke-width="37" d="M4.875 4.832c.44 12.136-5.265 17.05-11.28 22.086l-12.426 10.404m120.776 3.915c-19.486 19.023-40.023 18.15-61.43 17.011L-3.71 55.896"/><path stroke="#fcb44e" stroke-linecap="round" stroke-width="37" d="M149.403 23.314c-24.429 21.889-50.056 20.78-76.767 19.36l-55.18-2.934"/><path stroke="#fcb44e" d="M372.685 61.015S338.514 20.823 309.64 7.422c-38.071-17.67-67.602-12.214-103.053-5.526-35.452 6.689-65.93 27.38-111.093 19.661C54.567 14.563 25.8-1.695-2.634-26.949"/><path stroke="#fede74" stroke-width="39" d="M370.841 72.835s-31.747-42.036-59.905-57.192C273.807-4.341 243.762-.864 207.685 3.448S139.623 26.264 94.718 15.674C54.024 6.077 26.157-11.903-.79-38.77m-142.413 563.387s39.278 53.305 73.143 73.972c44.652 27.25 79.92 25.671 122.262 23.61s79.236-21.544 132.642-4.918c48.398 15.067 82.044 39.104 114.995 73.75"/><path stroke="#fede74" stroke-width="27" d="M-150.597 521.573s54.645 55.93 96.886 73.316c55.697 22.924 95.237 12.865 142.676.585 47.44-12.279 85.367-44.544 148.908-36.592 57.581 7.206 100.224 28.752 144.126 63.392"/><path stroke="#fede74" stroke-linecap="round" stroke-width="37" d="M165.533 587.109c3.883 1.126 8.783 3.953 12.541 3.38 1.758-.268 3.428-.37 5.161-.787 7.299-1.757 14.325-3.929 22.401-3.469 7.431.424 14.325 2.18 21.753 4.747 6.849 2.368 13.206 4.24 19.985 4.385 7.076.151 13.546-1.515 20.868-.477 2.344.333 4.72.296 7.06.795 2.404.512 4.717 1.45 7.108 2.024 1.477.356 15.644 4.49 15.596 5.875-.096 2.767-4.118 5.159-6.08 6.081-3.876 1.819-8.254 2.794-12.632 3.521-9.248 1.535-17.841 3.64-28.098-.383-6.835-2.681-13.661-6.472-20.107-10.452-5.876-3.628-11.303-7.609-17.605-9.991-2.407-.909-5.661-2.532-8.104-2.662-1.284-.068-2.465-.256-1.082 1.16 4.983 5.099 12.749 8.926 18.818 11.865 4.461 2.161 8.924 4.081 13.479 5.68 4.312 1.513 8.809 2.303 12.982 4.58 4.795 2.616 8.802 6.308 13.285 9.524 2.621 1.881 5.767 3.6 8.153 5.822 1.208 1.125 2.007.291 3.239-.19 1.925-.75 3.819-1.502 5.803-2.082"/><path stroke="#fede74" stroke-linecap="round" stroke-width="37" d="M154.084 600.824c3.882 1.126 8.782 3.954 12.541 3.381 1.758-.268 3.428-.37 5.161-.787 7.298-1.757 14.325-3.929 22.4-3.469 7.432.424 14.325 2.179 21.753 4.747 6.849 2.367 13.207 4.239 19.985 4.384 7.076.152 13.546-1.514 20.869-.476 2.343.332 4.72.296 7.06.795 2.403.511 4.717 1.449 7.107 2.024 1.478.355 15.644 4.489 15.596 5.875-.095 2.766-4.117 5.159-6.08 6.08-3.875 1.82-8.254 2.795-12.631 3.522-9.249 1.535-17.841 3.64-28.099-.383-6.835-2.681-13.66-6.472-20.107-10.453-5.875-3.627-11.303-7.609-17.605-9.99-2.407-.91-5.66-2.533-8.104-2.662-1.283-.068-2.465-.256-1.082 1.159 4.984 5.099 12.75 8.927 18.818 11.866 4.461 2.16 8.924 4.08 13.479 5.679 4.313 1.514 8.809 2.304 12.983 4.581 4.794 2.616 8.801 6.307 13.284 9.524 2.621 1.88 5.767 3.599 8.153 5.821 1.209 1.125 2.007.291 3.239-.189 1.926-.751 3.819-1.503 5.804-2.083m16.006 1.966c.688-.842 1.448-1.611 2.149-2.418.334-.386.468-.871.847-1.226.505-.472.911-.998 1.453-1.435 1.309-1.055 2.81-1.789 4.361-2.496.649-.297 1.291-.787 1.987-.983.544-.154 1.099-.817 1.669-.81"/><path stroke="#fede74" stroke-linecap="round" stroke-width="37" d="M291.27 638.043c-1.054-14.637 5.458-20.054 12.329-25.591l14.195-11.439m-142.561-15.124c22.13-21.208 46.382-18.388 71.671-15.173l52.242 6.642"/><path stroke="#fede74" stroke-linecap="round" stroke-width="37" d="M120.06 603.354c27.832-24.232 58.094-20.69 89.648-16.679l65.185 8.286"/><path stroke="#fede74" d="M-144.861 538.677s42.057 51.296 76.687 69.913c45.662 24.547 80.238 20.544 121.74 15.57 41.5-4.973 76.521-27.217 130.106-14.023 48.56 11.956 83.192 34.001 117.826 66.834"/><path stroke="#fcb44e" stroke-width="39" d="M-40.074 557.664s36.587 49.52 67.877 68.901c41.259 25.554 73.613 24.443 112.455 22.955 38.843-1.487 72.509-19.088 121.696-3.241 44.573 14.36 75.696 36.846 106.289 69.104"/><path stroke="#fcb44e" stroke-width="27" d="M-46.89 554.787s50.718 52.089 89.663 68.527c51.352 21.674 87.542 12.786 130.96 1.928 43.419-10.857 77.905-40.231 136.305-32.282 52.923 7.204 92.279 27.48 132.923 59.84"/><path stroke="#fcb44e" stroke-linecap="round" stroke-width="37" d="M243.928 618.277c3.575 1.076 8.101 3.73 11.545 3.238 1.61-.229 3.142-.307 4.729-.675 6.681-1.548 13.108-3.482 20.525-2.979 6.825.463 13.17 2.148 20.013 4.587 6.311 2.249 12.165 4.037 18.388 4.237 6.496.208 12.418-1.265 19.149-.236 2.154.329 4.335.319 6.488.801 2.211.495 4.344 1.382 6.544 1.935 1.36.342 14.404 4.291 14.374 5.568-.06 2.549-3.728 4.715-5.52 5.545-3.538 1.64-7.547 2.496-11.558 3.124-8.473 1.325-16.338 3.182-25.794-.627-6.3-2.538-12.603-6.099-18.56-9.831-5.429-3.401-10.451-7.124-16.26-9.381-2.218-.862-5.22-2.389-7.464-2.533-1.179-.075-2.265-.26-.981 1.059 4.625 4.748 11.791 8.352 17.391 11.121 4.116 2.035 8.232 3.848 12.429 5.366 3.973 1.438 8.108 2.21 11.962 4.349 4.427 2.458 8.142 5.9 12.289 8.909 2.424 1.759 5.329 3.374 7.541 5.446 1.121 1.049 1.845.287 2.971-.143 1.76-.674 3.49-1.348 5.306-1.864"/><path stroke="#fcb44e" stroke-linecap="round" stroke-width="37" d="M233.557 630.809c3.574 1.076 8.101 3.73 11.545 3.238 1.61-.23 3.142-.307 4.729-.675 6.681-1.548 13.108-3.482 20.525-2.979 6.825.462 13.17 2.148 20.013 4.587 6.311 2.249 12.164 4.037 18.388 4.236 6.495.209 12.417-1.264 19.149-.236 2.154.33 4.335.32 6.488.802 2.211.495 4.344 1.382 6.544 1.935 1.359.342 14.404 4.291 14.374 5.568-.06 2.549-3.728 4.715-5.52 5.545-3.539 1.64-7.548 2.496-11.558 3.123-8.473 1.326-16.339 3.182-25.794-.626-6.301-2.538-12.603-6.099-18.56-9.831-5.429-3.401-10.451-7.124-16.26-9.381-2.218-.862-5.22-2.39-7.465-2.533-1.178-.075-2.265-.26-.981 1.058 4.626 4.749 11.792 8.353 17.392 11.122 4.116 2.034 8.231 3.848 12.429 5.366 3.973 1.438 8.108 2.209 11.962 4.349 4.427 2.458 8.141 5.9 12.289 8.909 2.424 1.759 5.328 3.374 7.541 5.446 1.121 1.048 1.845.287 2.971-.144 1.76-.673 3.49-1.347 5.306-1.863m-86.245-50.575c20.097-19.339 42.385-16.503 65.629-13.294l48.017 6.631"/><path stroke="#fcb44e" stroke-linecap="round" stroke-width="37" d="M202.354 632.814c25.3-22.073 53.112-18.513 82.114-14.509l59.913 8.271"/><path stroke="#fcb44e" d="M-41.455 570.609s39.118 47.695 71.09 65.193c42.158 23.074 73.853 19.72 111.895 15.539 38.041-4.18 69.96-24.344 119.276-11.66 44.69 11.494 76.699 32.153 108.818 62.757"/></g><defs><clipPath id="a"><path fill="#fff" d="M0 0h309v638H0z"/></clipPath></defs></svg>
